svg/docspell.svg

<?xml version="1.0" encoding="UTF-8" standalone="no"?>
<!-- Created with Inkscape (http://www.inkscape.org/) -->

<svg
   xmlns:dc="http://purl.org/dc/elements/1.1/"
   xmlns:cc="http://creativecommons.org/ns#"
   xmlns:rdf="http://www.w3.org/1999/02/22-rdf-syntax-ns#"
   xmlns:svg="http://www.w3.org/2000/svg"
   xmlns="http://www.w3.org/2000/svg"
   xmlns:sodipodi="http://sodipodi.sourceforge.net/DTD/sodipodi-0.dtd"
   xmlns:inkscape="http://www.inkscape.org/namespaces/inkscape"
   width="134.51514mm"
   height="134.51514mm"
   viewBox="0 0 134.51514 134.51514"
   version="1.1"
   id="svg8"
   inkscape:version="0.92.4 (5da689c313, 2019-01-14)"
   sodipodi:docname="logo-only.svg">
  <defs
     id="defs2" />
  <sodipodi:namedview
     id="base"
     pagecolor="#ffffff"
     bordercolor="#666666"
     borderopacity="1.0"
     inkscape:pageopacity="0.0"
     inkscape:pageshadow="2"
     inkscape:zoom="0.7"
     inkscape:cx="-280.5528"
     inkscape:cy="36.929238"
     inkscape:document-units="mm"
     inkscape:current-layer="g4744"
     showgrid="false"
     inkscape:snap-text-baseline="true"
     showguides="true"
     inkscape:guide-bbox="true"
     inkscape:window-width="2371"
     inkscape:window-height="2141"
     inkscape:window-x="1468"
     inkscape:window-y="18"
     inkscape:window-maximized="0">
    <sodipodi:guide
       position="157.48529,365.37511"
       orientation="0,1"
       id="guide4763"
       inkscape:locked="false" />
  </sodipodi:namedview>
  <metadata
     id="metadata5">
    <rdf:RDF>
      <cc:Work
         rdf:about="">
        <dc:format>image/svg+xml</dc:format>
        <dc:type
           rdf:resource="http://purl.org/dc/dcmitype/StillImage" />
        <dc:title />
      </cc:Work>
    </rdf:RDF>
  </metadata>
  <g
     inkscape:label="Ebene 1"
     inkscape:groupmode="layer"
     id="layer1"
     transform="translate(-36.01786,-22.720551)">
    <path
       style="opacity:1;fill:#1c2d61;fill-opacity:1;fill-rule:nonzero;stroke:none;stroke-width:0.48060441;stroke-linecap:round;stroke-linejoin:miter;stroke-miterlimit:4;stroke-dasharray:none;stroke-dashoffset:0;stroke-opacity:1;paint-order:stroke fill markers"
       id="path4746"
       sodipodi:type="arc"
       sodipodi:cx="103.27543"
       sodipodi:cy="89.978119"
       sodipodi:rx="67.257568"
       sodipodi:ry="67.257568"
       sodipodi:start="6.0364656"
       sodipodi:end="6.0351217"
       sodipodi:open="true"
       d="M 168.49635,73.552185 A 67.257568,67.257568 0 0 1 119.72327,155.19352 67.257568,67.257568 0 0 1 38.065555,106.44787 67.257568,67.257568 0 0 1 86.783766,24.773782 67.257568,67.257568 0 0 1 168.47422,73.46455" />
    <path
       style="opacity:1;fill:#f0f8ff;fill-opacity:1;fill-rule:nonzero;stroke:none;stroke-width:0.34951028;stroke-linecap:round;stroke-linejoin:miter;stroke-miterlimit:4;stroke-dasharray:none;stroke-dashoffset:0;stroke-opacity:1;paint-order:stroke fill markers"
       id="path4746-6"
       sodipodi:type="arc"
       sodipodi:cx="103.54803"
       sodipodi:cy="89.966118"
       sodipodi:rx="48.911774"
       sodipodi:ry="48.911774"
       sodipodi:start="6.0364656"
       sodipodi:end="6.0351217"
       sodipodi:open="true"
       d="M 150.97869,78.020673 A 48.911774,48.911774 0 0 1 115.50941,137.39277 48.911774,48.911774 0 0 1 56.1254,101.94343 48.911774,48.911774 0 0 1 91.554782,42.547517 48.911774,48.911774 0 0 1 150.9626,77.956942" />
    <g
       id="g4744"
       transform="translate(8.5571306,109.20034)"
       style="fill:#9c0011;fill-opacity:1;stroke:none">
      <path
         sodipodi:open="true"
         d="M 127.64333,-27.960568 A 34.40884,35.990559 0 0 1 102.69116,15.727003 34.40884,35.990559 0 0 1 60.915205,-10.357512 34.40884,35.990559 0 0 1 85.83933,-54.062594 34.40884,35.990559 0 0 1 127.63202,-28.007418"
         sodipodi:end="6.0351217"
         sodipodi:start="6.0364643"
         sodipodi:ry="35.990559"
         sodipodi:rx="34.40884"
         sodipodi:cy="-19.170753"
         sodipodi:cx="94.276443"
         sodipodi:type="arc"
         id="path4677-7-3-9"
         style="opacity:1;fill:#9c0011;fill-opacity:1;fill-rule:nonzero;stroke:none;stroke-width:0.12413885;stroke-linecap:round;stroke-linejoin:miter;stroke-miterlimit:4;stroke-dasharray:none;stroke-dashoffset:0;stroke-opacity:1;paint-order:stroke fill markers" />
      <rect
         transform="matrix(0.9932084,0.11634897,-0.12978749,0.99154183,0,0)"
         ry="6.490634"
         y="-93.584991"
         x="112.29646"
         height="97.792213"
         width="15.056865"
         id="rect4736-4"
         style="opacity:1;fill:#9c0011;fill-opacity:1;fill-rule:nonzero;stroke:none;stroke-width:0.15839411;stroke-linecap:round;stroke-linejoin:miter;stroke-miterlimit:4;stroke-dasharray:none;stroke-dashoffset:0;stroke-opacity:1;paint-order:stroke fill markers" />
      <flowRoot
         xml:space="preserve"
         id="flowRoot4789"
         style="font-style:normal;font-variant:normal;font-weight:normal;font-stretch:normal;font-size:192px;line-height:1.25;font-family:'Liberation Sans';-inkscape-font-specification:'Liberation Sans';font-variant-ligatures:normal;font-variant-caps:normal;font-variant-numeric:normal;font-feature-settings:normal;text-align:start;letter-spacing:0px;word-spacing:0px;writing-mode:lr-tb;text-anchor:start;fill:#000000;fill-opacity:1;stroke:none"
         transform="matrix(0.26458333,0,0,0.26458333,-8.5571306,-109.20034)"><flowRegion
           id="flowRegion4791"
           style="font-size:192px"><rect
             id="rect4793"
             width="200"
             height="308.57144"
             x="480"
             y="733.94824"
             style="font-size:192px" /></flowRegion><flowPara
           id="flowPara4795" /></flowRoot>    </g>
  </g>
</svg>

<svg xmlns="http://www.w3.org/2000/svg" width="508.404" height="508.404" viewBox="0 0 134.515 134.515"><path d="M168.496 73.552a67.258 67.258 0 0 1-48.773 81.642 67.258 67.258 0 0 1-81.657-48.746 67.258 67.258 0 0 1 48.718-81.674 67.258 67.258 0 0 1 81.69 48.69" style="opacity:1;fill:#1c2d61;fill-opacity:1;fill-rule:nonzero;stroke:none;stroke-width:.48060441;stroke-linecap:round;stroke-linejoin:miter;stroke-miterlimit:4;stroke-dasharray:none;stroke-dashoffset:0;stroke-opacity:1;paint-order:stroke fill markers" transform="translate(-36.018 -22.72)"/><path d="M150.979 78.02a48.912 48.912 0 0 1-35.47 59.373 48.912 48.912 0 0 1-59.384-35.45 48.912 48.912 0 0 1 35.43-59.395 48.912 48.912 0 0 1 59.408 35.409" style="opacity:1;fill:#f0f8ff;fill-opacity:1;fill-rule:nonzero;stroke:none;stroke-width:.34951028;stroke-linecap:round;stroke-linejoin:miter;stroke-miterlimit:4;stroke-dasharray:none;stroke-dashoffset:0;stroke-opacity:1;paint-order:stroke fill markers" transform="translate(-36.018 -22.72)"/><g style="fill:#9c0011;fill-opacity:1;stroke:none" transform="translate(-27.46 86.48)"><path d="M127.643-27.96a34.409 35.99 0 0 1-24.952 43.687 34.409 35.99 0 0 1-41.776-26.085A34.409 35.99 0 0 1 85.84-54.063a34.409 35.99 0 0 1 41.793 26.056" style="opacity:1;fill:#9c0011;fill-opacity:1;fill-rule:nonzero;stroke:none;stroke-width:.12413885;stroke-linecap:round;stroke-linejoin:miter;stroke-miterlimit:4;stroke-dasharray:none;stroke-dashoffset:0;stroke-opacity:1;paint-order:stroke fill markers"/><rect width="15.057" height="97.792" x="112.296" y="-93.585" ry="6.491" style="opacity:1;fill:#9c0011;fill-opacity:1;fill-rule:nonzero;stroke:none;stroke-width:.15839411;stroke-linecap:round;stroke-linejoin:miter;stroke-miterlimit:4;stroke-dasharray:none;stroke-dashoffset:0;stroke-opacity:1;paint-order:stroke fill markers" transform="matrix(.9932 .11635 -.12979 .99154 0 0)"/></g></svg>
